X:49
M: C|
L:1/8
K:D
|: ag | f3e d2a2 | f2d2 fgaf | e3d c2g2 | e2c2 efge | f2d2g2e2 | a2f2b2g2 | f2d2e2f2 | d/d/d d2z2 :|

